X:15
T:Charles O'Connor
R:carolan
C:Turlough O'Carolan (1670-1738)
Z:id:hn-carolan-15
M:6/8
Q:3/8=120
K:D
A |: d2A d2A | BAG FGA | Bcd ecA | dfa a2g |
fef BcB | ede ABA | dcB AFA |1 d3 d2A :|2 d3 dcB ||
|: A2D FED | BGB AFA | DFA FDA | GEe c2A |
f2f fef | fef fdB | e2e eae | eae ecA |
dcB AFE | FAd f2e | dcB AFA |1 d3 dcB :|2 d3 d2 ||
P:variations
A |: d2A d2A | BAG FGA | Bcd ecA | dfa a2g |
faf BAB | efe AGA | dcB AFA |1 dAF D2A :|2 dAF D3 ||
|: ABA FED | BGB AFD | FAD FAD | GBe c2A |
f2f faf | faf fdB | e2e eae | eae ecA |
dcB AFE | FAd f2e | dcB AFA |1 dAF D3 :|2 dAF D2 ||

